F[ERK3
CUT[BEI SEDAN AUF DEN HOEHEN]
REG[Europa, Mitteleuropa, Deutschland, Hessen, Nassau]
KEY[E1386  08 Bb 3/4]
MEL[-5_  1_-5_-5-5  -6_-6_
    1_  -7_.-4-6-6  -5_0_
    -5_  3_2_11  1_-6_
    4_  332_2_  1__ //] >>
FCT[Staende -, Soldaten -, Kriegs - Lied]
